assets/tokens/btc.svg

<svg viewBox="0 0 20 20" fill="none" xmlns="http://www.w3.org/2000/svg"><path d="M19.7001 12.4198C19.3824 13.6937 18.8168 14.8925 18.0358 15.9477C17.2547 17.003 16.2734 17.8941 15.148 18.5702C14.0225 19.2462 12.7749 19.6939 11.4764 19.8877C10.1779 20.0815 8.85393 20.0177 7.5801 19.6998C5.66184 19.2211 3.92859 18.1843 2.59955 16.7206C1.2705 15.2568 0.405334 13.4318 0.113452 11.4764C-0.178429 9.52096 0.116081 7.52289 0.959742 5.73483C1.8034 3.94677 3.15832 2.44903 4.85318 1.431C6.54803 0.412971 8.5067 -0.0796316 10.4815 0.0154847C12.4563 0.110601 14.3586 0.789164 15.9477 1.96537C17.5369 3.14157 18.7416 4.7626 19.4095 6.62346C20.0774 8.48432 20.1786 10.5015 19.7001 12.4198Z" fill="#F7931A"></path><path d="M14.41 8.57486C14.61 7.24486 13.595 6.52986 12.21 6.05153L12.66 4.24986L11.5617 3.97653L11.1234 5.73153C10.835 5.65986 10.54 5.59153 10.245 5.52486L10.685 3.7582L9.58837 3.48486L9.14003 5.28486L6.9267 4.7382L6.63503 5.90986C6.63503 5.90986 7.44837 6.09653 7.4317 6.1082C7.8767 6.21986 7.9567 6.5132 7.94337 6.74653L6.7117 11.6832C6.6567 11.8165 6.52003 12.0199 6.20837 11.9432C6.22003 11.9599 5.4117 11.7432 5.4117 11.7432L4.8667 12.9999L7.0767 13.5582L6.6217 15.3815L7.71837 15.6549L8.16837 13.8515C8.46837 13.9332 8.75837 14.0082 9.04337 14.0782L8.59337 15.8732L9.6917 16.1465L10.1467 14.3265C12.0167 14.6832 13.425 14.5399 14.0167 12.8499C14.4934 11.4882 13.9934 10.7015 13.0084 10.1899C13.725 10.0232 14.265 9.55153 14.4084 8.5782H14.41V8.57486ZM11.9017 12.0915C11.5617 13.4532 9.26837 12.7165 8.52503 12.5315L9.1267 10.1165C9.87003 10.3015 12.255 10.6699 11.9017 12.0915ZM12.2417 8.55653C11.9334 9.79653 10.0234 9.16653 9.40337 9.01153L9.94837 6.81986C10.5684 6.97486 12.565 7.2632 12.2417 8.55653Z" fill="white"></path></svg>

<svg xmlns="http://www.w3.org/2000/svg" fill="none" viewBox="0 0 20 20"><path fill="#F7931A" d="M19.7 12.42A9.996 9.996 0 1 1 .302 7.582 9.996 9.996 0 0 1 19.7 12.42Z"/><path fill="#fff" d="M14.41 8.575c.2-1.33-.815-2.045-2.2-2.523l.45-1.802-1.098-.273-.439 1.755c-.288-.072-.583-.14-.878-.207l.44-1.767-1.097-.273-.448 1.8-2.213-.547-.292 1.172s.813.187.797.198c.445.112.525.405.511.639l-1.231 4.936c-.055.133-.192.337-.504.26.012.017-.796-.2-.796-.2L4.867 13l2.21.558-.455 1.824 1.096.273.45-1.803c.3.081.59.156.875.226l-.45 1.795 1.099.274.455-1.82c1.87.356 3.278.213 3.87-1.477.476-1.362-.024-2.149-1.009-2.66.717-.167 1.257-.638 1.4-1.612h.002v-.003Zm-2.508 3.517c-.34 1.361-2.634.624-3.377.44l.602-2.415c.743.184 3.128.553 2.775 1.974Zm.34-3.535c-.309 1.24-2.219.61-2.839.455l.545-2.192c.62.155 2.617.443 2.294 1.737Z"/></svg>
